X: 594
T: Moonlight Ramble., The
T: an siu.bal faoi soluis n-gealui.ge.
R:air
N:"Slow."
B:O'Neill's 594
Z:Transcription by John B. Walsh (walsh@math.ubc.ca)
M:3/4
L:1/16
%Q:50
K:D
d2{e}d>c|(B4 A2)A>B =c2A2|G2({G}F>E) D4 "f"(DE)(FG)|(ABAG) ">"F2(AG) ">"E2(GF)|D2D2 D4:|
(ABcd)|"#~"e3f (.g2.f2.e2.d2)|Tc3B A4 (ef)(ge)|">"d3(c/B/) A3(B/A/) ((AG)(EF))|D2D2D2 z2 d2(d>c)|
(B4 A2)(A>B) =c2A2|G2({G}F>E) D4 ("f"DEFG)|(ABAG) (FAGF) (EGFE)|D2D2 D4||


